projects/svn/images/icons/yt.svg

<svg width="25" height="18" viewBox="0 0 25 18" fill="none" xmlns="http://www.w3.org/2000/svg">
<path d="M19.9176 1.01844C16.5341 0.758176 8.63946 0.758176 5.25603 1.01844C2.65339 1.19195 1.52558 1.71248 1.0918 4.74889C0.83154 7.09127 0.83154 10.9085 1.0918 13.2509C1.52558 16.374 2.65339 16.721 5.16927 16.9813C8.55271 17.2416 16.4474 17.2416 19.8308 16.9813C22.3467 16.8945 23.4745 16.374 23.9083 13.2509C24.1685 10.9085 24.1685 7.09127 23.9083 4.74889C23.5613 1.53897 22.3467 1.19195 19.9176 1.01844ZM10.2878 12.123V5.70319L16.4474 8.91312L10.2878 12.123Z" fill="white"/>
</svg>

<svg width="25" height="18" fill="none" xmlns="http://www.w3.org/2000/svg"><path d="M19.918 1.018c-3.384-.26-11.279-.26-14.662 0-2.603.174-3.73.694-4.164 3.73-.26 2.343-.26 6.16 0 8.503.434 3.123 1.561 3.47 4.077 3.73 3.384.26 11.278.26 14.662 0 2.516-.087 3.643-.607 4.077-3.73.26-2.342.26-6.16 0-8.502-.347-3.21-1.561-3.557-3.99-3.73zm-9.63 11.105v-6.42l6.16 3.21-6.16 3.21z" fill="#fff"/></svg>
